dist/img/setting.svg

<svg xmlns="http://www.w3.org/2000/svg" width="18" height="18"><path fill-rule="evenodd" fill="#D68DFF" d="M17.894 9.824l-.016-.01-1.266.607c-.48.131-.977.375-1.162.77l-.366.787c-.184.395.055.953.303 1.365l.475 1.115a.778.778 0 0 1-.219.627l-.614.614a.596.596 0 0 1-.394.181l-1.32-.465c-.432-.246-.956-.426-1.366-.276l-.816.297c-.409.149-.634.713-.75 1.18l-.423 1.049c-.132.198-.304.335-.565.335h-.869a.752.752 0 0 1-.514-.204l-.565-1.19c-.131-.483-.375-.985-.769-1.17l-.787-.369c-.395-.186-.952.055-1.363.305l-1.035.444c-.211.031-.409-.004-.578-.173l-.614-.614c-.183-.183-.241-.418-.215-.664l.261-.732.244-.538-.009-.015c.182-.381.287-.802.164-1.142l-.295-.818c-.148-.41-.712-.633-1.18-.748L.224 9.954A.612.612 0 0 1 0 9.474v-.869c0-.436.353-.725.789-.868l.803-.301c.007-.034.016-.067.024-.101.359-.142.682-.355.823-.655l.369-.786c.186-.395-.055-.952-.306-1.364l-.308-.718c-.104-.309-.131-.603.107-.841l.614-.614c.223-.223.521-.26.824-.187l.294.105.054.026.79.359a.695.695 0 0 1 .036-.022c.348.148.719.221 1.025.11l.817-.294c.411-.149.634-.713.748-1.181l.36-.9C8.022.149 8.243 0 8.526 0h.869c.308 0 .492.19.632.446l.109.228.048.115.299.683c.14.408.367.795.705.952l.787.367c.395.184.953-.055 1.365-.304l.891-.379c.294-.065.582-.023.798.193l.614.614a.61.61 0 0 1 .183.473l-.413 1.173c-.247.431-.426.956-.277 1.365l.297.816c.137.375.621.595 1.06.719l.002.007.715.269.066.023.1.04c.356.158.624.426.624.805v.869a.595.595 0 0 1-.106.35zM8.921 4.5a4.5 4.5 0 1 0 0 9 4.5 4.5 0 0 0 0-9z"/></svg>

<?xml version="1.0" encoding="iso-8859-1"?>
<svg xmlns="http://www.w3.org/2000/svg" xmlns:xlink="http://www.w3.org/1999/xlink" width="18px" height="18px">
    <path fill-rule="evenodd"  fill="rgb(214, 141, 255)"
 d="M17.894,9.824 C17.888,9.821 17.883,9.817 17.878,9.814 L16.612,10.421 C16.132,10.552 15.635,10.796 15.450,11.191 L15.084,11.978 C14.900,12.373 15.139,12.931 15.387,13.343 L15.862,14.458 C15.878,14.690 15.817,14.911 15.643,15.085 L15.029,15.699 C14.910,15.818 14.777,15.870 14.635,15.880 L13.315,15.415 C12.883,15.169 12.359,14.989 11.949,15.139 L11.133,15.436 C10.724,15.585 10.499,16.149 10.383,16.616 L9.960,17.665 C9.828,17.863 9.656,18.000 9.395,18.000 L8.526,18.000 C8.323,18.000 8.152,17.922 8.012,17.796 L7.447,16.606 C7.316,16.123 7.072,15.621 6.678,15.436 L5.891,15.067 C5.496,14.881 4.939,15.122 4.528,15.372 L3.493,15.816 C3.282,15.847 3.084,15.812 2.915,15.643 L2.301,15.029 C2.118,14.846 2.060,14.611 2.086,14.365 L2.347,13.633 L2.591,13.095 C2.588,13.090 2.585,13.085 2.582,13.080 C2.764,12.699 2.869,12.278 2.746,11.938 L2.451,11.120 C2.303,10.710 1.739,10.487 1.271,10.372 L0.224,9.954 C0.088,9.834 -0.000,9.682 -0.000,9.474 L-0.000,8.605 C-0.000,8.169 0.353,7.880 0.789,7.737 L1.592,7.436 C1.599,7.402 1.608,7.369 1.616,7.335 C1.975,7.193 2.298,6.980 2.439,6.680 L2.808,5.894 C2.994,5.499 2.753,4.942 2.502,4.530 L2.194,3.812 C2.090,3.503 2.063,3.209 2.301,2.971 L2.915,2.357 C3.138,2.134 3.436,2.097 3.739,2.170 L4.033,2.275 C4.051,2.283 4.069,2.292 4.087,2.301 L4.877,2.660 C4.889,2.652 4.901,2.645 4.913,2.638 C5.261,2.786 5.632,2.859 5.938,2.748 L6.755,2.454 C7.166,2.305 7.389,1.741 7.503,1.273 L7.863,0.373 C8.022,0.149 8.243,-0.000 8.526,-0.000 L9.395,-0.000 C9.703,-0.000 9.887,0.190 10.027,0.446 L10.136,0.674 C10.152,0.712 10.168,0.750 10.184,0.789 L10.483,1.472 C10.623,1.880 10.850,2.267 11.188,2.424 L11.975,2.791 C12.370,2.975 12.928,2.736 13.340,2.487 L14.231,2.108 C14.525,2.043 14.813,2.085 15.029,2.301 L15.643,2.915 C15.784,3.056 15.831,3.217 15.826,3.388 L15.413,4.561 C15.166,4.992 14.987,5.517 15.136,5.926 L15.433,6.742 C15.570,7.117 16.054,7.337 16.493,7.461 C16.494,7.463 16.494,7.466 16.495,7.468 L17.210,7.737 C17.233,7.744 17.254,7.752 17.276,7.760 L17.376,7.800 C17.732,7.958 18.000,8.226 18.000,8.605 L18.000,9.474 C18.000,9.613 17.961,9.728 17.894,9.824 ZM8.921,4.500 C6.436,4.500 4.421,6.515 4.421,9.000 C4.421,11.485 6.436,13.500 8.921,13.500 C11.406,13.500 13.421,11.485 13.421,9.000 C13.421,6.515 11.406,4.500 8.921,4.500 Z"/>
</svg>
